packages/astro-components-stencil/src/icons/movie-filter.svg

<svg xmlns="http://www.w3.org/2000/svg" viewBox="0 0 24 24"><g xmlns="http://www.w3.org/2000/svg" id="movie-filter" fill-rule="nonzero">
            <path d="M21.5 4H18l1.74 2.61c.11.17-.01.39-.21.39h-2c-.33 0-.65-.17-.83-.45L15 4h-2l1.74 2.61c.11.17-.01.39-.21.39h-2c-.33 0-.65-.17-.83-.45L10 4H8l1.74 2.61c.11.17-.01.39-.21.39h-2c-.33 0-.64-.17-.83-.45L5 4H4c-1.1 0-1.99.9-1.99 2L2 18c0 1.1.9 2 2 2h16c1.1 0 2-.9 2-2V4.5c0-.28-.22-.5-.5-.5zM11.25 15.25L10 18l-1.25-2.75L6 14l2.75-1.25L10 10l1.25 2.75L14 14l-2.75 1.25zm5.69-3.31L16 14l-.94-2.06L13 11l2.06-.94L16 8l.94 2.06L19 11l-2.06.94z"/>
        </g></svg>

<svg width="24" height="24" viewBox="0 0 24 24" fill="none" xmlns="http://www.w3.org/2000/svg">
<path fill-rule="evenodd" clip-rule="evenodd" d="M21.5 4H18L19.74 6.61C19.85 6.78 19.73 7 19.53 7H17.53C17.2 7 16.88 6.83 16.7 6.55L15 4H13L14.74 6.61C14.85 6.78 14.73 7 14.53 7H12.53C12.2 7 11.88 6.83 11.7 6.55L10 4H8L9.74 6.61C9.85 6.78 9.73 7 9.53 7H7.53C7.2 7 6.89 6.83 6.7 6.55L5 4H4C2.9 4 2.01 4.9 2.01 6L2 18C2 19.1 2.9 20 4 20H20C21.1 20 22 19.1 22 18V4.5C22 4.22 21.78 4 21.5 4ZM11.25 15.25L10 18L8.75 15.25L6 14L8.75 12.75L10 10L11.25 12.75L14 14L11.25 15.25ZM16 14L16.94 11.94L19 11L16.94 10.06L16 8L15.06 10.06L13 11L15.06 11.94L16 14Z" fill="black"/>
</svg>
